X:104
T:Reels simple chords 180
M:3/4
L:1/8
K:Em
GA [B2G,2B,2D2] AB | d2 BA [GG,B,D]A | GE D2 GA | [B2G,2B,2D2] AB dB | GB [A6A,6C6E6] |
GA [B2G,2B,2D2] | AB d2 BA | [GG,B,D]A GE D2 | GA [BG,B,D]A Bd |
AG Ad [G6G,6B,6D6] | GA | [B2G,2B,2D2] AB d2 | BA [GG,B,D]A GE |
D2 GA [B2G,2B,2D2] | AB dB GB | [A6A,6C6E6] | GA [B2G,2B,2D2] AB |
d2 BA [GG,B,D]A | GE D2 GA | [BG,B,D]A Bd AG | Ad [G6G,6B,6D6] |
Bc [d2G,2B,2D2] | Bd g2 fg | [eC,E,G,]d Bc d2 | Bc [d2G,2B,2D2] Bd |
g2 fg [e6A,6C6E6] | de | [g2G,2B,2D2] G2 G2 | BA [GC,E,G,]A GE |
D2 GA [BG,B,D]A | Bd AG Ad | [G6G,6B,6D6] | Bc [d2G,2B,2D2] Bd |
g2 fg [eC,E,G,]d | Bc d2 Bc | [d2G,2B,2D2] Bd g2 | fg [e6A,6C6E6] |
de [g2G,2B,2D2] | G2 G2 BA | [GC,E,G,]A GE D2 | GA [BG,B,D]A Bd |
AG Ad [G6G,6B,6D6] |


